X:175
T:Gigue de paroissiens
Z:robin.beech@mcgill.ca
S:mustrad
M:6/8
L:1/8
K:D
A | AFA dfa | agf efg | fdf fed | cee ecA | 
AFA dfa | agf efg | afd gec |  edc d2 ::
D | DFA dcB | ABG  FAF | DFA DFA | A,CE A,CE | 
DFA dcB | ABG FAd | fef gec | edc d2 :| 

